!!!OTL: ICH SCHIFFE AUF DER SEE
!!!ARE: Europa, Mitteleuropa, Deutschland, Kuestrin
!!!SCT: E1510
!!!YEM: Copyright 1995, estate of Helmut Schaffrath.
**kern
*ICvox
*Ivox
*M4/4
*k[f#]
*G:
{4g
=1
4dd
4dd
8.dd
16b
8.cc
16a
=2
2g
4r}
{4b
=3
4a
4cc
8.b
16g
8.dd
16b
=4
4b
4a
4r}
{4g
=5
4dd
4dd
8.dd
16b
8.cc
16a
=6
2g
4r}
{4b
=7
4a
4cc
8.b
16g
8.dd
16b
=8
4b
4a
4.r}
{8cc
=9
8b
8g
8dd
8b
4a
8r}
{8cc
=10
8b
8g
8dd
8b
4a
8r}
{8cc
=11
8b
8g
8dd
8b
4a
8r}
{8cc
=12
8b
8g
8dd
8b
4a}
{4ee
=13
4ee
4dd
4r}
{4cc
=14
8b
8dd
8gg
8ee
8.dd
16b
8.cc
16a
=15
2g
4r}
==
!!!AGN: Staende -, Seemanns - Lied, Schiffbruch
!!!ONB: ESAC (Essen Associative Code) Database: ERK3
!!!AMT: simple quadruple
!!!AIN: vox
!!!EED: Helmut Schaffrath
!!!EEV: 1.0
*-
